X: 201
M: C
L: 1/8
K: G
|:\
d^cde d2e2 | Tf6 eg | Tf6 eg | Tf4 (f3e/f/) |
g2f2 e2d2 | ^c4 f4 | e2d^c d2e2 | T^c4 B4 |\
edef e2f2 | g6 B2 | cBcd c2d2 | Te6 d=f |
e2fg a2g2 | f2e2 d2e2 | c2BA B2c2 | TA4 G4 :|

